X:21
T:Polka \`a Riou
R:polka
T:Urbain Trincal polkas II
M:2/4
L:1/8
G:G instrument - whistle
G:don't play
G:G instrument - pipes
P:don't play: 3x (G drone over last 4 bars)
K:C
e>f gg/g/ | ga g2 | gf/e/ df | ed ec | e>f gg/g/ | ga g2 | gf/e/ df | ed c2 :|
e2 d2     | ef g2 | gf/e/ df | ed ec | e2 d2     | ef g2 | gf/e/ df | ed c2 :|

